X:14129
T:Reel des Fusilles
C:Joseph Allard
M:2/4
L:1/16
K:G
g3a gfed|eaab agef|gfga gedB|fedc BGG2|!
g3a gfed|eaab agef|gafg egdB|cedc BGG2:|!
|:DGBG dGBG|FGAB cAFA|DGBG dGBG|cedc BGG2|!
DGBG dGBG|FGAB cAFA|DGBG dGBG|Aedc BGG2:|!
